X:1
T: Black Donald the Piper
C:
R:Jig
Q:180
K:G
M:6/8
L:1/16
d2B2B2 e2f2g2|d2B2B2 B2A2G2|d2B2B2 e2f2g2|d2B2G2 A4G2|d2B2B2 e2c2c2|d2B2B2 B2A2G2|A4B2 c2d2e2|d2B2G2 A4G2|
d2B2B2 e2f2g2|d2B2B2 B2A2G2|d2B2B2 e2f2g2|d2B2G2 A4G2|d2B2B2 e2c2c2|d2B2B2 B2A2G2|A4B2 c2d2e2|d2B2G2 A4G2|
g2d2d2 g2e2e2|g2d2c2 B2A2G2|g2d2d2 g2e2e2|d2B2G2 A4G2|g2d2d2 g2e2e2|g2d2c2 B2A2G2|A4B2 c2d2e2|d2B2G2 A4G2|
g2d2d2 g2e2e2|g2d2c2 B2A2G2|g2d2d2 g2e2e2|d2B2G2 A4G2|g2d2d2 g2e2e2|g2d2c2 B2A2G2|A4B2 c2d2e2|d2B2G2 A4G2||
